Origami/48x48/apps/solaar.svg

<svg width="48" height="48" version="1" xmlns="http://www.w3.org/2000/svg">
 <rect transform="matrix(0,-1,-1,0,0,0)" x="-44" y="-44" width="40" height="40" rx="2" ry="2" style="fill:#029499"/>
 <path d="m4 7v-1c0-1.108 0.892-2 2-2h36c1.108 0 2 0.892 2 2v1c0-1.108-0.892-2-2-2h-36c-1.108 0-2 0.892-2 2z" fill="#fff" opacity=".2"/>
 <path d="m4 42v1c0 1.108 0.892 2 2 2h36c1.108 0 2-0.892 2-2v-1c0 1.108-0.892 2-2 2h-36c-1.108 0-2-0.892-2-2z" opacity=".2"/>
 <path d="m 18.732422,11.875 -3.464844,2 3.128906,5.417969 A 8,8 0 0 0 16.265625,23 L 10,23 l 0,4 6.259766,0 a 8,8 0 0 0 2.138672,3.701172 l -3.13086,5.423828 3.464844,2 3.130859,-5.423828 A 8,8 0 0 0 24,33 8,8 0 0 0 26.140625,32.708984 l 3.126953,5.416016 3.464844,-2 -3.128906,-5.417969 A 8,8 0 0 0 31.734375,27 L 38,27 l 0,-4 -6.259766,0 a 8,8 0 0 0 -2.138672,-3.701172 l 3.13086,-5.423828 -3.464844,-2 -3.130859,5.423828 A 8,8 0 0 0 24,17 8,8 0 0 0 21.859375,17.291016 L 18.732422,11.875 Z M 24,20 a 5,5 0 0 1 5,5 5,5 0 0 1 -5,5 5,5 0 0 1 -5,-5 5,5 0 0 1 5,-5 z" style="opacity:.2"/>
 <path d="m18.732422 10.875l-3.464844 2 3.128906 5.417969a8 8 0 0 0 -2.130859 3.707031h-6.265625v4h6.259766a8 8 0 0 0 2.138672 3.701172l-3.13086 5.423828 3.464844 2 3.130859-5.423828a8 8 0 0 0 2.136719 0.298828 8 8 0 0 0 2.140625 -0.291016l3.126953 5.416016 3.464844-2-3.128906-5.417969a8 8 0 0 0 2.130859 -3.707031h6.265625v-4h-6.259766a8 8 0 0 0 -2.138672 -3.701172l3.13086-5.423828-3.464844-2-3.130859 5.423828a8 8 0 0 0 -2.136719 -0.298828 8 8 0 0 0 -2.140625 0.291016l-3.126953-5.416016zm5.267578 8.125a5 5 0 0 1 5 5 5 5 0 0 1 -5 5 5 5 0 0 1 -5 -5 5 5 0 0 1 5 -5z" style="fill:#ffffff"/>
</svg>

<svg xmlns="http://www.w3.org/2000/svg" width="48" height="48" version="1">
 <rect style="fill:#029499" width="40" height="40" x="-44" y="-44" rx="2" ry="2" transform="matrix(0,-1,-1,0,0,0)"/>
 <path fill="#fff" opacity=".2" d="m4 7v-1c0-1.108 0.892-2 2-2h36c1.108 0 2 0.892 2 2v1c0-1.108-0.892-2-2-2h-36c-1.108 0-2 0.892-2 2z"/>
 <path opacity=".2" d="m4 42v1c0 1.108 0.892 2 2 2h36c1.108 0 2-0.892 2-2v-1c0 1.108-0.892 2-2 2h-36c-1.108 0-2-0.892-2-2z"/>
 <path style="opacity:0.2" d="m 18.732422,11.875 -3.464844,2 3.128906,5.417969 A 8,8 0 0 0 16.265625,23 L 10,23 l 0,4 6.259766,0 a 8,8 0 0 0 2.138672,3.701172 l -3.13086,5.423828 3.464844,2 3.130859,-5.423828 A 8,8 0 0 0 24,33 8,8 0 0 0 26.140625,32.708984 l 3.126953,5.416016 3.464844,-2 -3.128906,-5.417969 A 8,8 0 0 0 31.734375,27 L 38,27 l 0,-4 -6.259766,0 a 8,8 0 0 0 -2.138672,-3.701172 l 3.13086,-5.423828 -3.464844,-2 -3.130859,5.423828 A 8,8 0 0 0 24,17 8,8 0 0 0 21.859375,17.291016 L 18.732422,11.875 Z M 24,20 a 5,5 0 0 1 5,5 5,5 0 0 1 -5,5 5,5 0 0 1 -5,-5 5,5 0 0 1 5,-5 z"/>
 <path style="fill:#ffffff" d="M 18.732422 10.875 L 15.267578 12.875 L 18.396484 18.292969 A 8 8 0 0 0 16.265625 22 L 10 22 L 10 26 L 16.259766 26 A 8 8 0 0 0 18.398438 29.701172 L 15.267578 35.125 L 18.732422 37.125 L 21.863281 31.701172 A 8 8 0 0 0 24 32 A 8 8 0 0 0 26.140625 31.708984 L 29.267578 37.125 L 32.732422 35.125 L 29.603516 29.707031 A 8 8 0 0 0 31.734375 26 L 38 26 L 38 22 L 31.740234 22 A 8 8 0 0 0 29.601562 18.298828 L 32.732422 12.875 L 29.267578 10.875 L 26.136719 16.298828 A 8 8 0 0 0 24 16 A 8 8 0 0 0 21.859375 16.291016 L 18.732422 10.875 z M 24 19 A 5 5 0 0 1 29 24 A 5 5 0 0 1 24 29 A 5 5 0 0 1 19 24 A 5 5 0 0 1 24 19 z"/>
</svg>
